svg/logos/logo-pool.svg

<?xml version="1.0" encoding="UTF-8"?>
<svg width="161px" height="60px" viewBox="0 0 161 60" version="1.1" xmlns="http://www.w3.org/2000/svg" xmlns:xlink="http://www.w3.org/1999/xlink">
    <!-- Generator: Sketch 58 (84663) - https://sketch.com -->
    <title>pool</title>
    <desc>Created with Sketch.</desc>
    <g id="Website" stroke="none" stroke-width="1" fill="none" fill-rule="evenodd">
        <g id="06-token" transform="translate(-120.000000, -2357.000000)">
            <g id="Group-25" transform="translate(0.000000, 1972.000000)">
                <g id="Group-12" transform="translate(10.000000, 335.000000)">
                    <g id="Group-8">
                        <g id="pool" transform="translate(110.000000, 50.000000)">
                            <rect id="Rectangle" stroke="#FFFFFF" stroke-width="2" x="1" y="1" width="159" height="58" rx="2"></rect>
                            <path d="M36.0738886,13.0543833 C39.3094737,13.0543833 41.8597594,14.0151803 43.6528969,15.9121822 C45.4279012,17.7893738 46.3263517,20.3483112 46.3263517,23.5189753 C46.3263517,26.6913472 45.427217,29.2509677 43.6535812,31.1274763 C41.8604437,33.0237951 39.3094737,33.9849336 36.0738886,33.9849336 C35.3666924,33.9849336 34.7953244,33.4131689 34.7953244,32.709222 C34.7953244,32.0039089 35.3666924,31.4324858 36.0738886,31.4324858 C38.6142523,31.4324858 40.485397,30.7596205 41.7944113,29.374611 C43.1236117,27.968425 43.7705919,26.0536622 43.7705919,23.5189753 C43.7705919,20.9863378 43.1236117,19.0712334 41.7937271,17.6643643 C40.4833442,16.2793548 38.6135681,15.6064896 36.0738886,15.6064896 L24.5565468,15.6064896 L24.5565468,46.4008349 C24.5565468,47.1054649 23.9848366,47.6765465 23.2793511,47.6765465 C22.5721549,47.6765465 22.0001026,47.1054649 22.0001026,46.4008349 L22.0001026,14.3300949 C22.0001026,13.6264896 22.5721549,13.0543833 23.2793511,13.0543833 L36.0738886,13.0543833 Z M123.829718,13.0543833 C124.535888,13.0543833 125.108282,13.6264896 125.108282,14.3300949 L125.108282,45.1247818 L141.364557,45.1247818 C142.071069,45.1247818 142.643121,45.6958634 142.643121,46.4008349 C142.643121,47.1054649 142.071069,47.6765465 141.364557,47.6765465 L123.829718,47.6765465 C123.12389,47.6765465 122.551154,47.1054649 122.551154,46.4008349 L122.551154,14.3300949 C122.551154,13.6264896 123.12389,13.0543833 123.829718,13.0543833 Z M99.0930075,13.0549639 C103.528123,13.0549639 107.072316,14.5878672 109.626365,17.6096129 C112.128409,20.5732941 113.397051,24.8659696 113.397051,30.3653624 C113.397051,33.0879051 113.079891,35.5293472 112.453781,37.6244516 C111.813986,39.762592 110.865241,41.6011879 109.634234,43.0883226 C108.384409,44.5990247 106.840689,45.7568994 105.046867,46.5294991 C103.279048,47.2901442 101.275496,47.6757609 99.0930075,47.6757609 C96.1581604,47.6757609 93.6441412,47.0165579 91.6234828,45.7176205 C89.5980346,44.4145844 87.9954671,42.4776205 86.8619688,39.9603529 C86.5865489,39.3469184 86.8612845,38.6228197 87.4743932,38.3482087 C87.6331445,38.2771651 87.8018179,38.2399355 87.9745968,38.2399355 C88.4556408,38.2399355 88.8932334,38.5230854 89.0906461,38.9589108 C90.0407593,41.0697268 91.3015324,42.6104858 92.9448141,43.66726 C94.5668834,44.7096888 96.6357829,45.2373928 99.0930075,45.2373928 C100.940545,45.2373928 102.618724,44.9187211 104.079305,44.2882087 C105.538517,43.6617951 106.739417,42.7607704 107.750772,41.5356091 C108.772734,40.3012258 109.566833,38.7505617 110.112883,36.9269943 C110.671592,35.0607324 110.954197,32.8539393 110.954197,30.3653624 C110.954197,25.4554953 109.879204,21.6929146 107.759668,19.1821366 C105.661002,16.7003909 102.826401,15.4936736 99.0930075,15.4936736 C98.345097,15.4936736 93.7669682,15.2877154 90.6877394,19.1302201 C87.6085107,22.9727249 83.1347335,33.0619469 83.1347335,33.0619469 C79.7776899,39.2441101 77.8052729,47.6757609 67.1768017,47.6757609 C62.7416859,47.6757609 59.1971515,46.1428577 56.6434445,43.121112 C54.1414001,40.1577723 52.8724157,35.8647552 52.8724157,30.365704 C52.8724157,27.6428197 53.1899184,25.2017192 53.8160282,23.1066148 C54.4558235,20.9681328 55.4045681,19.129537 56.6352332,17.6427438 C57.8854001,16.1320417 59.4287779,14.9738254 61.2225997,14.2012258 C62.9904192,13.4405806 64.9943128,13.0549639 67.1768017,13.0549639 C70.1116488,13.0549639 72.625668,13.7145085 74.6463263,15.0131044 C76.6717745,16.3161404 78.2739999,18.2534459 79.4078403,20.7707135 C79.6829181,21.384148 79.4085246,22.1079051 78.795416,22.3828577 C78.6366646,22.4539013 78.4679913,22.4907894 78.2952124,22.4907894 C77.8141684,22.4907894 77.3762336,22.2076395 77.179163,21.7721556 C76.2290499,19.6613397 74.9679346,18.1202391 73.3246529,17.0634649 C71.7025836,16.0213776 69.6336841,15.4936736 67.1768017,15.4936736 C65.3289223,15.4936736 63.6510848,15.8120038 62.190504,16.4425161 C60.7312917,17.0689298 59.5300503,17.970296 58.5190369,19.1954573 C57.4970751,20.4298406 56.7026341,21.9801632 56.1569263,23.8040721 C55.5982174,25.670334 55.3156126,27.8771271 55.3156126,30.365704 C55.3156126,35.2755712 56.3902634,39.0378102 58.5101414,41.5485882 C60.6084647,44.030334 63.4434079,45.2373928 67.1768017,45.2373928 C67.92437,45.2373928 72.5024988,45.4430095 75.5817276,41.6005047 C78.6609563,37.758 82.8233893,28.3594042 82.8233893,28.3594042 C86.180775,22.177241 88.4641942,13.0549639 99.0930075,13.0549639 Z" id="Combined-Shape" fill="#FFFFFF"></path>
                        </g>
                    </g>
                </g>
            </g>
        </g>
    </g>
</svg>

<svg width="161" height="60" xmlns="http://www.w3.org/2000/svg"><g fill="none" fill-rule="evenodd"><rect stroke="#FFF" stroke-width="2" x="1" y="1" width="159" height="58" rx="2"/><path d="M36.074 13.054c3.235 0 5.786.961 7.579 2.858 1.775 1.877 2.673 4.436 2.673 7.607 0 3.172-.899 5.732-2.672 7.608-1.794 1.897-4.345 2.858-7.58 2.858a1.277 1.277 0 1 1 0-2.553c2.54 0 4.411-.672 5.72-2.057 1.33-1.407 1.977-3.321 1.977-5.856 0-2.533-.647-4.448-1.977-5.855-1.31-1.385-3.18-2.058-5.72-2.058H24.557v30.795c0 .704-.572 1.276-1.278 1.276-.707 0-1.279-.572-1.279-1.276V14.33c0-.705.572-1.277 1.28-1.277h12.794zm87.756 0c.706 0 1.278.572 1.278 1.276v30.795h16.257a1.277 1.277 0 1 1 0 2.552H123.83a1.277 1.277 0 0 1-1.279-1.276V14.33c0-.705.573-1.277 1.279-1.277zm-24.737.001c4.435 0 7.98 1.533 10.533 4.555 2.502 2.963 3.771 7.256 3.771 12.755 0 2.723-.317 5.164-.943 7.26-.64 2.138-1.589 3.976-2.82 5.463a12.128 12.128 0 0 1-4.587 3.441c-1.768.761-3.772 1.147-5.954 1.147-2.935 0-5.449-.66-7.47-1.958-2.025-1.303-3.628-3.24-4.761-5.758a1.22 1.22 0 0 1 2.229-1.001c.95 2.11 2.21 3.651 3.854 4.708 1.622 1.043 3.69 1.57 6.148 1.57 1.848 0 3.526-.318 4.986-.949a9.527 9.527 0 0 0 3.672-2.752c1.022-1.235 1.816-2.785 2.362-4.609.559-1.866.841-4.073.841-6.562 0-4.91-1.075-8.672-3.194-11.183-2.099-2.482-4.934-3.688-8.667-3.688-.748 0-5.326-.206-8.405 3.636-3.08 3.843-7.553 13.932-7.553 13.932-3.357 6.182-5.33 14.614-15.958 14.614-4.435 0-7.98-1.533-10.534-4.555-2.502-2.963-3.77-7.256-3.77-12.755 0-2.723.317-5.164.943-7.26.64-2.138 1.589-3.976 2.82-5.463a12.131 12.131 0 0 1 4.587-3.442c1.767-.76 3.771-1.146 5.954-1.146 2.935 0 5.449.66 7.47 1.958 2.025 1.303 3.627 3.24 4.76 5.758a1.221 1.221 0 0 1-2.228 1.001c-.95-2.11-2.211-3.652-3.854-4.709-1.622-1.042-3.691-1.57-6.148-1.57-1.848 0-3.526.319-4.986.95a9.526 9.526 0 0 0-3.672 2.752c-1.022 1.235-1.816 2.785-2.362 4.61-.559 1.865-.841 4.072-.841 6.56 0 4.91 1.074 8.673 3.194 11.184 2.098 2.481 4.933 3.688 8.667 3.688.747 0 5.325.206 8.405-3.636 3.079-3.843 7.241-13.242 7.241-13.242 3.358-6.182 5.641-15.304 16.27-15.304z" fill="#FFF"/></g></svg>
